X:241
T:Reel 241
L:1/8
M: 4/4
K: G Major
B/2A/2|G2BGAGFD|G2Bdcedc|G2BGAGED|(3BAGAGFDEF|G2BGAGFD|G2Bdefge|dcBGAGEF|GBAGEGG2|Bdddcdec|BddcBEE2|BddfedcB|cABGEGG2|Bddfecce|dcBGAGEG|Bdefgfed|ececBAG2|.abc